X:1
T:James Gibb editions
T:Las, pauvre coeur - Janequin
T:#
%%score [ 1 2 3 4 ]
L:1/8
Q:1/4=130
M:4/4
K:F
V:1 treble nm="Soprano"
V:2 treble nm="Alto"
V:3 treble-8 nm="Tenor"
V:4 bass nm="Bass"
V:1
"^Las, pauvre coeur""^Clément Janequin\n(1485-1558)" z4 d4- | d4 c4 | B4 A4- | A4 z2 A2 | %4
w: Las,|* pau-|vre coeur,|* tant|
 B3 A B2 (c2- | cB) (B4 A2) | B4 z2 F2 |[M:4/4] B4 c4 | d4 z2 d2 | f3 _e d2 (e2- | ed) (c4 B2) | %11
w: tu as de tris\-|* * tes\- *|se, loin|de con-|fort et|ba- ni de ly\-|* * es\- *|
 c4 z2 c2 | f4 f4 | d8 | z2 d2 d2 d2 | c4 B4 | A8 | z2 F2 G2 (G2 | F2 B3 A/G/ A2) | B4 z2 B2 | %20
w: se, prêt|à tom-|ber|en un grief|de- ses-|poir|qui me con\-||traint sans|
 c3 B A2 (B2- | BAGF G4) | F4 z2 F2 | B4 c4 | d8 | z2 d2 d2 d2 | (dcBA B2) (c2- | cB) (B4 A2) | %28
w: au- cun bien a\-||voir, pour-|tant tel|mal,|pour ta da-|me~~et * * * * mai\-|* * tres\- *|
 B4 z2 F2 | B4 c4 | d8 | z2 d2 d2 d2 | (dcBA B2) (c2- | cB) (B4 A2) | B8 |] %35
w: se, pour-|tant tel|mal,|pour ta da-|me~~et * * * * mai\-|* * tres\- *|se.|
V:2
 z8 | z4 G4- | G4 F4 | E4 D4 | z2 F2 F2 F2 | G2 E2 (F3 E | DC D4 C2- |[M:4/4] CB, B,4 A,2) | %8
w: |Las,|* pau-|vre coeur,|tant tu as|de tris- tes\- *|||
 B,2 B2 B2 B2 | A2 B2 B2 G2 | G3 F G4- | G4 A4- | A4 z2 F2 | B4 B4- | B4 A2 G2 | A3 A G2 G2 | F8 | %17
w: se, loin de con-|fort et ba- ni|de ly- es\-|* se,|* pret|à tom\-|* ber en|un grief de- ses-|poir|
 z4 z2 C2 | F3 E F4 | z2 F2 G3 F | E2 (F3 EDC | B,8) | A,2 A,2 B,3 C | D4 z2 F2 | (FE) (DC) B,4 | %25
w: qui|me con- traint|sans au- cun|bien a\- * * *||voir, pour- tant tel|mal, pour-|tant * tel * mal,|
 z2 F2 G2 A2 | G2 G2 G4 | G2 D2 F2 F2 | D4 z4 | z2 G2 G2 G2 | B4 z2 B2 | B2 B2 B2 B2 | %32
w: pour ta da-|me~~et mai- tres-|se, pour- tant tel|mal,|pour- tant tel|mal, pour|ta da- me~et mai-|
 (B,CDE FG A2 | G2 _E2 F4) | F8 |] %35
w: tres\- * * * * * *||se.|
V:3
 g8 | f4 e4 | (d6 cB | c2) c2 f3 e | d3 c (B2 f2 | edcB c4) | B4 z4 | %7
w: Las,|pau- vre|coeur, * *|* tant tu as|de tris- tes\- *||se,|
[M:4/4][K:treble-8] z2 d2 f2 f2 | (fedc BA B2) | z2 f2 g2 g2 | c4 d4 | e4 f3 e | d2 c2 d4 | %13
w: loin de con-|fort * * * * * *|et ba- ni|de ly-|es- se, prêt|à tom- ber|
 z2 f2 g2 g2 | g2 g2 d3 d | e2 f2 d4- | d4 z2 d2 | c2 d2 e3 e | d2 B2 c2 c2 | (B3 A GABG | A4) z4 | %21
w: en un grief|de- ses- poir qui|me con- traint,|* qui|me con- traint sans|au- cun bien a-|voir, * * * * *||
 z2 d2 _e3 d | c2 (d3 cBA | G4 F4 | z2 f2 g2 g2 | (fedc B2) A2 | B3 c d2 _e2- | e d2 c/B/ c4) | %28
w: sans au- cun|bien~ a\- * * *|* voir,|pour- tant tel|mal, * * * * pour|ta da- me~~et mai\-|* tres\- * * *|
 B2 G2 B3 c | d2 d2 e2 e2 | f2 f2 g4- | g4 f4 | z2 f2 f2 f2 | (_ed) (cB) c4 | B8 |] %35
w: se, pour- tant tel|mal, pour ta da-|me~~et mai- tres\-|* se,|pour ta da-|me~~et * mai\- * tres-|se.|
V:4
 z8 | z8 | G,4 A,4- | A,2 A,2 D,4 | z2 D,2 B,3 A, | G,2 G,2 F,4 | B,,2 B,4 A,2 |[M:4/4] G,4 F,4 | %8
w: ||Las, pau\-|* vre coeur,|tant tu as|de tris- tes-|se, loin de|con- fort|
 z2 G,2 G,2 G,2 | F,2 B,4 (C2- | C2 B,A,G,F, G,2 | C,4) F,4 | z2 F,2 B,4 | B,4 G,4- | G,4 z2 B,2 | %15
w: et ba- ni|de ly- es\-||* se,|prêt à|tom- ber|* en|
 A,2 F,2 G,2 G,2 | D,2 D,2 D,2 D,2 | (F,3 E,/D,/ C,3) C, | D,2 G,2 F,2 F,2 | B,,4 z4 | %20
w: un grief de- ses-|poir qui me con-|traint * * * sans|au- cun bien a-|voir,|
 z2 F,4 G,2- | G,2 G,2 _E,4 | F,4 B,,2 (D2- | DC) B,4 A,2 | B,4 z2 G,2 | B,3 A, G,2 F,2 | %26
w: sans au\-|* cun bien|a- voir, pour\-|* * tant tel|mal, pour|ta da- me~~et mai-|
 G,4 G,2 C,2 | G,2 G,2 F,2 F,2 | B,3 C D2 D2 | G,2 G,2 C2 C2 | B,4 G,4- | G,4 B,4 | %32
w: tres- se, pour-|tant tel mal, pour-|tant tel mal pour|ta da- me~~et mai-|tres- se,|* pour|
 B,2 B,2 B,2 F,2 | (G,4 F,4) | B,,8 |] %35
w: ta da- me~~et mai-|tres\- *|se.|

